X:148
T:Sweet Biddy Daly
Z: id:dc-jig-124
M:6/8
L:1/8
K:A Major
a|ecA BAF|AFE EFA|Bdc BAB|cBB B2a|!
ecA BAF|AFE EFA|Bdc BAB|cAA A2:|!
B|cee dff|cee ecA|cee eaf|ecA B2A|!
cee dff|cee ecA|Bdc BAB|cAA A2:|!

